X: 562
T: Da yengtao
%%abc-version 2.0
%%abcx-abcm2ps-target-version 5.9.1 (29 Sep 2008)
%%abc-creator hum2abc beta
%%abcx-conversion-date 2013/10/02 07:52:30
%%abc-edited-by Helmut Schaffrath
%%humdrum-veritas 66877418
%%humdrum-veritas-data 3659638161
%%continueall 1
%%barnumbers 0
L: 1/8
M: 2/4
K: F
c2A c [I:setbarnb 1]| 
gf2d | 
c> A G/ A/ c | 
F4 | 
A d c f | 
d> c A G | 
F> A G D | 
C4 | 
dc2A | 
G A G/ A/ G/ F/ | 
D C A/ c/ A/ G/ | 
DC3 |]  



